packages/icons/svgs/solid/Source=bulb.svg

<svg xmlns="http://www.w3.org/2000/svg" width="12" height="12" viewBox="0 0 12 12"><path d="M10.5 4.5C10.5 2.025 8.475 0 6 0a4.513 4.513 0 0 0-4.5 4.5c0 1.65.9 3.15 2.25 3.9v1.35h4.5V8.4c1.35-.75 2.25-2.25 2.25-3.9ZM5.25 12h1.5c.825 0 1.5-.675 1.5-1.5h-4.5c0 .825.675 1.5 1.5 1.5Z"/></svg>

<svg width="12" height="12" viewBox="0 0 12 12" fill="none" xmlns="http://www.w3.org/2000/svg">
<path d="M10.5 4.5C10.5 2.025 8.475 0 6 0C3.525 0 1.5 2.025 1.5 4.5C1.5 6.15 2.4 7.65 3.75 8.4V9.75H8.25V8.4C9.6 7.65 10.5 6.15 10.5 4.5Z" fill="black"/>
<path d="M5.25 12H6.75C7.575 12 8.25 11.325 8.25 10.5H3.75C3.75 11.325 4.425 12 5.25 12Z" fill="black"/>
</svg>
